X:43
T:Édesanyám monda nékem
M:4/4
L:1/4
K:D
D>F A<A | ABA (G/A/) |
B>A G/ (GF/) | G<A GF |
F<F A A | G>F E>D |
E>E E<E | E<G BA |
GFE>F | E<D D z |

